X:1
T:297 - SÃºplica
T:Letra: SalomÃ£o Luiz Ginsburg (1867-1927)
T:MÃºsica: Phoebe Palmer Knapp (1839-1908)
L:1/8
Q:1/4=100
M:4/4
K:F#maj
V:1
C2 | y"F#"C4- CF EF | "G#m"G>D G4 F2 | "C#"E3 F "C#7"G^^F GA | "F#"F4- FC FA | c4- cA FC | ("B"E2 D2) zB AG | "F#/C#"F3 A "C#7"G3 C | "F#"F4 z2 C2 | "C#"E3 F G^^F "C#7"GA | ("F#"F4 C2) F2 | A3 B cA "G#7"GF | "C#"G6 C2 | "F#"A3 B AG FC | ("B"E2 D2) zB AG | "F#/C#"F3 A "C#7"G3 C | "F#"F4 z2 |]
w:1.~Pro-me_toa-go-ra, meu Je-sus, Ser-vir-te com sin-ce-roa-mor;_ Con-ce-de, pois,_ que tu-a luz_ Ha-bi-teem mim, Ã³ Sal-va-dor, Eas-sim os ma-les ven-ce-rei;_ NÃ£o te-me-rei a lu-taa-troz; Aes-tra-da re-ta tri-lha-rei,_ A-ten-to sem-preÃ  tu-a voz.
w:2.~O mun_do mau ao meu re-dor A-fo-ga-seem pro-fa-na-Ã§Ãµes;_ Ã‰ mui su-til_ o ten-ta-dor,_ Ter-rÃ­-veis sur-gem vis pai-xÃµes; SÃª tu, Je-sus, re-fÃº-gio meu,_ Am-pa-roe for-te de-fen-sor; Pro-te-gee li-vrao ser-vo teu_ Da cor-ru-Ã§Ã£o doen-ga-na-dor.
w:3.~E seeu_ meen-fra-que-cer na fÃ©, Ou mea-fas-tar de ti, meu Deus,_ Con-ce-de-mea_ re-al mer-cÃª_ Do teu am-pa-ro lÃ¡ dos cÃ©us. Des-per-ta-me, sea-dor-me-cer,_ E se fu-gir, de-ter-me vem! Vem re-preen-der-me seeu te-mer_ De pra-ti-car em tu-doo bem.
w:4.~Tu pro_me-tes-te, meu Se-nhor, Ã€-que-le queem ti con-fi-ar,_ Cer-cÃ¡-lo de_ teu gran-dea-mor_ E lÃ¡ no cÃ©u lhe dar lu-gar. Res-pon-de, pois, Ã³ meu Se-nhor,_ Ã€ mi-nhahu-mil-de pe-ti-Ã§Ã£o; Di-ri-ge-me com teu fa-vor_ A-tÃ© che-gar Ã  re-den-Ã§Ã£o.
W:
W:
W:1. Prometo agora, meu Jesus,
W:Servir-te com sincero amor;
W:Concede, pois, que tua luz
W:Habite em mim, Ã³ Salvador,
W:E assim os males vencerei;
W:NÃ£o temerei a luta atroz;
W:A estrada reta trilharei,
W:Atento sempre Ã  tua voz.
W:
W:2. O mundo mau ao meu redor
W:Afoga-se em profanaÃ§Ãµes;
W:Ã‰ mui sutil o tentador,
W:TerrÃ­veis surgem vis paixÃµes;
W:SÃª tu, Jesus, refÃºgio meu,
W:Amparo e forte defensor;
W:Protege e livra o servo teu
W:Da corruÃ§Ã£o do enganador.
W:
W:
W:
W:3. E se eu me enfraquecer na fÃ©,
W:Ou me afastar de ti, meu Deus,
W:Concede-me a real mercÃª
W:Do teu amparo lÃ¡ dos cÃ©us.
W:Desperta-me, se adormecer,
W:E se fugir, deter-me vem!
W:Vem repreender-me se eu temer
W:De praticar em tudo o bem.
W:
W:4. Tu prometeste, meu Senhor,
W:Ã€quele que em ti confiar,
W:CercÃ¡-lo de teu grande amor
W:E lÃ¡ no cÃ©u lhe dar lugar.
W:Responde, pois, Ã³ meu Senhor,
W:Ã€ minha humilde petiÃ§Ã£o;
W:Dirige-me com teu favor
W:AtÃ© chegar Ã  redenÃ§Ã£o.
W:
W:

